X:2
T:Leitrim Fancy, The
R:hornpipe
H:Bars 2 and 6 also played |ADGB A2de|
Z:id:hn-hornpipe-2
M:C|
K:D
AG|FAEA DEFG|(3ABA GB A2de|fdge agec|dBAF GBAG|
FAEA DEFG|(3ABA GB A2de|fdge agec|Addc d2:|
|:zg|fefg afeg|fefg a2 (3efg|agec dfec|1 dcAF G3e|
fefg afeg|fefg a2 (3efg|agec dfec|Addc d2:|2 dcAF GBAG|
FAEA DEFG|(3ABA GB A2de|fdge agec|Addc d2||

